X:1
T:Whitechapel, 77.77.88.77
T:Whitechapel, 77.77.88.77
T:George Frederick Root, 1871
T:Public Domain Courtesy of the Cyber Hymnal™
C:George Frederick Root, 1871
Z:Public Domain
Z:Courtesy of the Cyber Hymnal™
%%score ( 1 2 ) ( 3 4 )
L:1/8
Q:1/4=108
M:4/4
K:Bb
V:1 treble 
V:2 treble 
V:3 bass 
V:4 bass 
V:1
|: [B,D]3 [CE] [DF]2 [FB]2 | [EA]2 [DB]2 [Fc]4 | [DB]3 [Fc] [Fd]2 [Ec]2 | [DB]2 [CA]2 [DB]4 :| %4
 [df]3 [Bd] [df][Bd][Ac][Bd] | [ce]4 [Ac]4 | [Fd]3 [DB] [Fd][DB][CA][DB] | [Fc]4 F4 | %8
 [DB]3 [DB] [DB][DB][EB][FB] | [GB]6 z2 | [Ge]3 [Ge] [Fd][Ec][DB][CA] | [DB]6 z2 |] %12
V:2
|: x8 | x8 | x8 | x8 :| x8 | x8 | x8 | x4 F4 | x8 | x8 | x8 | x8 |] %12
V:3
|: [B,,B,]3 [B,,B,] [B,,B,]2 [D,B,]2 | [C,F,]2 [B,,B,]2 [F,A,]4 | [G,B,]3 [F,A,] B,2 [E,G,]2 | %3
 F,2 F,2 [B,,F,]4 :| B,3 B, B,B,B,B, | [F,A,]4 [F,C]4 | %6
 [B,,B,]3 [B,,B,] [B,,B,][B,,B,][B,,B,][B,,B,] | [F,A,]4 [F,A,]4 | %8
 [B,,B,]3 [B,,B,] [B,,B,][B,,B,][C,B,][D,B,] | [E,B,]6 z2 | [E,C]3 [E,C] F,F,F,F, | [B,,F,]6 z2 |] %12
V:4
|: x8 | x8 | x4 B,2 x2 | F,2 F,2 x4 :| B,3 B, B,B,B,B, | x8 | x8 | x8 | x8 | x8 | x4 F,F,F,F, | %11
 x8 |] %12

